src/images/icons/table.svg

<?xml version="1.0" encoding="utf-8"?>
<!-- Generated by IcoMoon.io -->
<!DOCTYPE svg PUBLIC "-//W3C//DTD SVG 1.1//EN" "http://www.w3.org/Graphics/SVG/1.1/DTD/svg11.dtd">
<svg version="1.1" xmlns="http://www.w3.org/2000/svg" xmlns:xlink="http://www.w3.org/1999/xlink" width="512" height="512" viewBox="0 0 512 512">
<path d="M455.111 0h-398.222c-31.37 0-56.889 25.519-56.889 56.889v398.222c0 31.37 25.519 56.889 56.889 56.889h398.222c31.37 0 56.889-25.519 56.889-56.889v-398.222c0-31.37-25.519-56.889-56.889-56.889zM224 448h-160v-160h160v160zM224 224h-160v-160h160v160zM448 448h-160v-160h160v160zM448 224h-160v-160h160v160z"></path>
</svg>

<?xml version="1.0" encoding="utf-8"?>
<!-- Generator: Adobe Illustrator 19.2.1, SVG Export Plug-In . SVG Version: 6.00 Build 0)  -->
<svg version="1.1" id="Layer_1" xmlns="http://www.w3.org/2000/svg" xmlns:xlink="http://www.w3.org/1999/xlink" x="0px" y="0px"
	 viewBox="0 0 512 512" style="enable-background:new 0 0 512 512;" xml:space="preserve">
<path class="lexicon-icon-body" fill="none" d="M455.1,0H56.9C25.5,0,0,25.5,0,56.9v398.2C0,486.5,25.5,512,56.9,512h398.2c31.4,0,56.9-25.5,56.9-56.9V56.9
	C512,25.5,486.5,0,455.1,0z"/>
<path class="lexicon-icon-outline" d="M455.1,0H56.9C25.5,0,0,25.5,0,56.9v398.2C0,486.5,25.5,512,56.9,512h398.2c31.4,0,56.9-25.5,56.9-56.9V56.9
	C512,25.5,486.5,0,455.1,0z M224,448H64V288h160V448z M224,224H64V64h160V224z M448,448H288V288h160V448z M448,224H288V64h160V224z"
	/>
</svg>
